symbols/web/how_to_vote/materialsymbolssharp/how_to_vote_wght600grad200fill1_24px.svg

<svg xmlns="http://www.w3.org/2000/svg" height="24" width="24"><path d="M5.175 16.5h13.65l-2.25-2.575 2.175-2.175 3.325 3.75v7.425H1.925V15.5l3.325-3.725 2.175 2.175Zm6.85-.35-7.45-7.525L13.525-.3l7.425 7.525Zm.025-4.375L16.625 7.2l-3.15-3.125L8.9 8.65Z"/></svg>

<svg xmlns="http://www.w3.org/2000/svg" height="24" width="24"><path d="M5.175 16.5H18.825L16.575 13.925L18.75 11.75L22.075 15.5V22.925H1.925V15.5L5.25 11.775L7.425 13.95ZM12.025 16.15 4.575 8.625 13.525 -0.3 20.95 7.225ZM12.05 11.775 16.625 7.2 13.475 4.075 8.9 8.65Z"/></svg>
